X:1
T:Title
%%score { ( 1 3 ) | ( 2 4 ) }
L:1/8
M:3/4
K:F
V:1 treble nm="Grand Piano"
V:3 treble 
V:2 bass 
V:4 bass 
V:1
 z2 z2[Q:1/4=100] C2 | A2 A2 A2 | A2 F2 C2 | A2 A2 A2 | B4 C2 | B2 B2 [DB]2 | [EB]2 [CEG]2 C2 | %7
 [CEB]2 [CFB]2 [CGB]2 | [DB]2 A2 C2 | A2 A2 A2 | A2 F2 C2 | A2 A2 A2 | A2 G2 [DG]2 | %13
 [Dd]2 [Fd]2 [Fd]2 | [Fd]2 [Fc]2 [A,F]2 | [DEB]2 [CEA]2 [B,EG]2 |[M:2/4] [A,F]4 |[M:1/4] [A,_EF]2 | %18
[M:3/4] [Dd]2 [Fd]2 [Fd]2 | [Fd]2 [Fc]2 [A,F]2 | [DEB]2 [CEA]2 [B,EG]2 |[M:2/4] [A,F]4 |] %22
V:2
 z2 z2 [F,A,]2 | [F,CF]2 [F,EF]2 [F,DF]2 | [F,CF]2 [F,A,C]2 [F,A,]2 | [F,CF]2 [F,CF]2 [F,CF]2 | %4
 [G,CE]4 C,2 | [C,G,C]2 [C,E,C]2 [C,F,]2 | [C,G,]2 C,2 C,2 | C,2 D,2 E,2 | z2 C2 [F,A,]2 | %9
 [F,CF]2 [F,EF]2 [F,DF]2 | [F,CF]2 [F,A,C]2 [F,A,]2 | [F,CF]2 [F,CE]2 [^F,C_E]2 | C2 z2 z2 | %13
 [B,,B,]2 [B,,G,]2 [=B,,_A,]2 | [C,A,]2 [C,A,]2 D,2 | G,,2 C,2 C,2 |[M:2/4] D,4 |[M:1/4] C,2 | %18
[M:3/4] [B,,B,]2 [B,,G,]2 [=B,,_A,]2 | [C,A,]2 [C,A,]2 D,2 | G,,2 C,2 C,2 |[M:2/4] F,4 |] %22
V:3
 x6 | x6 | x6 | x6 | x6 | x6 | x6 | x6 | F4 z2 | x6 | x6 | x6 | x6 | x6 | x6 | x6 |[M:2/4] x4 | %17
[M:1/4] x2 |[M:3/4] x6 | x6 | x6 |[M:2/4] x4 |] %22
V:4
 x6 | x6 | x6 | x6 | x6 | x6 | x6 | x6 | F,4 z2 | x6 | x6 | x6 | [G,D]2- [G,B,D]2 [B,,B,]2 | x6 | %14
 x6 | x6 |[M:2/4] x4 |[M:1/4] x2 |[M:3/4] x6 | x6 | x6 |[M:2/4] x4 |] %22

